assets/svg/1F4BC.svg

<svg xmlns="http://www.w3.org/2000/svg" viewBox="0 0 64 64" enable-background="new 0 0 64 64"><g transform="translate(0 4.753)"><path d="m32.895 0c-7.884 0-14.273 8.493-14.273 18.972 0 10.475 6.389 18.97 14.273 18.97 7.879 0 14.271-8.495 14.271-18.97 0-10.479-6.392-18.972-14.271-18.972m0 35.706c-6.346 0-11.487-6.837-11.487-15.266 0-8.433 5.141-15.268 11.487-15.268 6.341 0 11.485 6.835 11.485 15.268 0 8.429-5.144 15.266-11.485 15.266" fill="#7d5c3d"/><path d="m30.982 0c-7.886 0-14.275 8.493-14.275 18.972 0 10.475 6.389 18.97 14.275 18.97 7.88 0 14.27-8.495 14.27-18.97 0-10.479-6.39-18.972-14.27-18.972m0 35.706c-6.35 0-11.488-6.837-11.488-15.266 0-8.433 5.139-15.268 11.488-15.268 6.34 0 11.482 6.835 11.482 15.268.0001 8.429-5.142 15.266-11.482 15.266" fill="#98754f"/><path d="m63.876 52.901c0 3.389-1.664 6.136-3.714 6.136h-56.45c-2.047 0-3.711-2.747-3.711-6.136v-33.31c0-3.391 1.664-6.141 3.711-6.141h56.45c2.05 0 3.714 2.75 3.714 6.141v33.31" fill="#c2986b"/><path d="m17.09 52.779v-33.21c0-3.381 1.664-6.122 3.714-6.122h-17.09c-2.047 0-3.711 2.741-3.711 6.122v33.21c0 3.379 1.664 6.118 3.711 6.118h17.09c-2.05 0-3.714-2.739-3.714-6.118" fill="#98754f"/><path d="m63.876 29.23c0 1.355-1.664 2.453-3.714 2.453h-56.45c-2.047 0-3.711-1.099-3.711-2.453v-13.323c0-1.355 1.664-2.456 3.711-2.456h56.45c2.05 0 3.714 1.101 3.714 2.456v13.323" fill="#ac8560"/><path d="m36.424 34.03c0 .477-.234.863-.522.863h-7.929c-.288 0-.52-.387-.52-.863v-4.699c0-.477.232-.866.52-.866h7.929c.288 0 .522.389.522.866v4.699" fill="#fff"/></g></svg>

<?xml version="1.0" encoding="UTF-8" standalone="no"?>
<!-- Generator: Adobe Illustrator 16.0.0, SVG Export Plug-In . SVG Version: 6.00 Build 0)  -->

<svg
   xmlns:dc="http://purl.org/dc/elements/1.1/"
   xmlns:cc="http://creativecommons.org/ns#"
   xmlns:rdf="http://www.w3.org/1999/02/22-rdf-syntax-ns#"
   xmlns:svg="http://www.w3.org/2000/svg"
   xmlns="http://www.w3.org/2000/svg"
   xmlns:sodipodi="http://sodipodi.sourceforge.net/DTD/sodipodi-0.dtd"
   xmlns:inkscape="http://www.inkscape.org/namespaces/inkscape"
   version="1.1"
   id="Layer_1"
   x="0px"
   y="0px"
   width="64px"
   height="64px"
   viewBox="0 0 64 64"
   enable-background="new 0 0 64 64"
   xml:space="preserve"
   inkscape:version="0.48.5 r10040"
   sodipodi:docname="1F4BC.svg"><metadata
   id="metadata34353"><rdf:RDF><cc:Work
       rdf:about=""><dc:format>image/svg+xml</dc:format><dc:type
         rdf:resource="http://purl.org/dc/dcmitype/StillImage" /></cc:Work></rdf:RDF></metadata><defs
   id="defs34351" /><sodipodi:namedview
   pagecolor="#ffffff"
   bordercolor="#666666"
   borderopacity="1"
   objecttolerance="10"
   gridtolerance="10"
   guidetolerance="10"
   inkscape:pageopacity="0"
   inkscape:pageshadow="2"
   inkscape:window-width="768"
   inkscape:window-height="612"
   id="namedview34349"
   showgrid="false"
   inkscape:zoom="6.640625"
   inkscape:cx="32"
   inkscape:cy="32"
   inkscape:window-x="690"
   inkscape:window-y="267"
   inkscape:window-maximized="0"
   inkscape:current-layer="Layer_1" />
<g
   id="g34335"
   transform="translate(0,4.7529412)">
	<path
   d="m 32.895,0 c -7.884,0 -14.273,8.493 -14.273,18.972 0,10.475 6.389,18.97 14.273,18.97 7.879,0 14.271,-8.495 14.271,-18.97 C 47.166,8.493 40.774,0 32.895,0 z m 0,35.706 c -6.346,0 -11.487,-6.837 -11.487,-15.266 0,-8.433 5.141,-15.268 11.487,-15.268 6.341,0 11.485,6.835 11.485,15.268 0,8.429 -5.144,15.266 -11.485,15.266 z"
   id="path34337"
   inkscape:connector-curvature="0"
   style="fill:#7d5c3d" />
	<path
   d="m 30.982,0 c -7.886,0 -14.275,8.493 -14.275,18.972 0,10.475 6.389,18.97 14.275,18.97 7.88,0 14.27,-8.495 14.27,-18.97 C 45.252,8.493 38.862,0 30.982,0 z m 0,35.706 c -6.35,0 -11.488,-6.837 -11.488,-15.266 0,-8.433 5.139,-15.268 11.488,-15.268 6.34,0 11.482,6.835 11.482,15.268 0.001,8.429 -5.142,15.266 -11.482,15.266 z"
   id="path34339"
   inkscape:connector-curvature="0"
   style="fill:#98754f" />
	<path
   d="m 63.876,52.901 c 0,3.389 -1.664,6.136 -3.714,6.136 H 3.711 C 1.664,59.037 0,56.29 0,52.901 V 19.591 C 0,16.2 1.664,13.45 3.711,13.45 h 56.451 c 2.05,0 3.714,2.75 3.714,6.141 v 33.31 z"
   id="path34341"
   inkscape:connector-curvature="0"
   style="fill:#c2986b" />
	<path
   d="M 17.086,52.779 V 19.572 c 0,-3.381 1.664,-6.122 3.714,-6.122 H 3.711 C 1.664,13.45 0,16.191 0,19.572 v 33.207 c 0,3.379 1.664,6.118 3.711,6.118 H 20.8 c -2.05,0 -3.714,-2.739 -3.714,-6.118 z"
   id="path34343"
   inkscape:connector-curvature="0"
   style="fill:#98754f" />
	<path
   d="m 63.876,29.229 c 0,1.355 -1.664,2.453 -3.714,2.453 H 3.711 C 1.664,31.682 0,30.583 0,29.229 V 15.906 C 0,14.551 1.664,13.45 3.711,13.45 h 56.451 c 2.05,0 3.714,1.101 3.714,2.456 v 13.323 z"
   id="path34345"
   inkscape:connector-curvature="0"
   style="fill:#ac8560" />
	<path
   d="m 36.424,34.032 c 0,0.477 -0.234,0.863 -0.522,0.863 h -7.929 c -0.288,0 -0.52,-0.387 -0.52,-0.863 v -4.699 c 0,-0.477 0.232,-0.866 0.52,-0.866 h 7.929 c 0.288,0 0.522,0.389 0.522,0.866 v 4.699 z"
   id="path34347"
   inkscape:connector-curvature="0"
   style="fill:#ffffff" />
</g>
</svg>
